!!!COM: Bach, Johann Sebastian
!!!OPR: Inventio
!!!OTL: Inventio 14
!!!XEN: Two-part Inventions [for keyboard]
!!!ONM: No. 14
!!!ONB: In B-flat major.
!!!SCT: BWV 785
!!!YEC: Copyright 1994, David Huron
!!!YEM: Rights to all derivative electronic formats reserved.
!! Performance duration: 1:21; performance tempo: 59.3 quarter-notes per minute.
!! (Andras Schiff, piano, "Two-Part Inventions BWV 772a-786; Three-part
!! Inventions BWV 787-801" Decca 411 974-2)
**kern	**kern
*staff2	*staff1
*clefF4	*clefG2
*k[b-e-]	*k[b-e-]
*B-:	*B-:
*M4/4	*M4/4
*MM59.3	*MM59.3
=1-	=1-
8B-	16r
.	32b-
.	32cc
8BB-	32dd
.	32cc
.	16b-
8D	16ff
.	16dd
8F	16bb-
.	16ff
4B-	16dd
.	32ff
.	32ee-
.	32dd
.	32ee-
.	16ff
4r	16b-
.	16dd
.	16f
.	16a-
=2	=2
8r	16g
.	32e-
.	32f
8BB-	32g
.	32f
.	16e-
8E-	16b-
.	16g
8G	16ee-
.	16b-
4B-	16g
.	32b-
.	32a-
.	32g
.	32a-
.	16b-
4r	16e-
.	16g
.	16c
.	16e-
=3	=3
8r	16A
.	32c
.	32d
8BB-	32e-
.	32d
.	16c
8C	16a
.	16f
8E-	16cc
.	16a
4A	16ee-
.	32f
.	32g
.	32a
.	32g
.	16f
4r	16cc
.	16a
.	16ff
.	16cc
=4	=4
16r	8dd
32B-	.
32c	.
32d	8r
32c	.
16B-	.
8e-	16r
.	32gg
.	32ff
8r	32ee-
.	32ff
.	16gg
16r	8cc
32A	.
32B-	.
32c	8r
32B-	.
16A	.
8d	16r
.	32ff
.	32ee-
8r	32dd
.	32ee-
.	16ff
=5	=5
16r	8b-
32G	.
32A	.
32B-	8r
32A	.
16G	.
16c	16r
32C	32ee-
32D	32dd
32E-	32cc
32D	32dd
16C	16ee-
8F	16a
.	32cc
.	32b-
8FF	32a
.	32b-
.	16cc
16r	8f
16c	.
16A	8r
16F	.
=6	=6
16r	8ff
32F	.
32G	.
32A	8f
32G	.
16F	.
16c	8a
16A	.
16f	8cc
16c	.
16A	4ff
32c	.
32B-	.
32A	.
32B-	.
16c	.
16F	4r
16A	.
16C	.
16E-	.
=7	=7
16D	8r
32BB-	.
32C	.
32D	8f
32C	.
16BB-	.
16F	8b-
16D	.
16B-	8dd
16F	.
16D	4ff
32F	.
32E-	.
32D	.
32E-	.
16F	.
16BB-	4r
16D	.
16GG	.
16BB-	.
=8	=8
16EEn	8r
32GG	.
32AA	.
32BB-	8g
32AA	.
16GG	.
16En	8b-
16C	.
16G	8cc
16E	.
16B-	4een
32C	.
32D	.
32E	.
32D	.
16C	.
16G	4r
16E	.
16c	.
16G	.
=9	=9
8A	16r
.	32f
.	32g
8c	32a
.	32g
.	16f
8A	16cc
.	16a
8F	16ff
.	16cc
8F#	16aa
.	32ee-
.	32dd
8A	32cc
.	32dd
.	16ee-
8F#	16a
.	16cc
8D	16f#
.	16a
=10	=10
16G	8b-
32GG	.
32AA	.
32BB-	8dd
32AA	.
16GG	.
16D	8b-
16BB-	.
16G	8g
16D	.
16B-	8a-
32A-	.
32G	.
32F	8ff
32G	.
16A-	.
16D	8a-
16F	.
16BB-	8f
16D	.
=11	=11
8E-	16g
.	32c
.	32d
8G	32e-
.	32d
.	16c
8E-	16g
.	16e-
8C	16cc
.	16g
8BBn	16dd
.	32a-
.	32g
8D	32f
.	32g
.	16a-
8BB	16d
.	16f
8GG	16Bn
.	16g
=12	=12
16C	8e-
32CC	.
32DD	.
32EE-	8r
32DD	.
16CC	.
8.C	16r
.	32c
.	32d
.	32e-
.	32d
16BB-	16c
16AA	8.cc
32FF	.
32GG	.
32AA	.
32GG	.
16FF	16b-
8.F	16a
.	32f
.	32g
.	32a
.	32g
16E-	16f
=13	=13
16D	8.ff
32BB-	.
32C	.
32D	.
32C	.
16BB-	16ee-
8.B-	16dd
.	32b-
.	32cc
.	32dd
.	32cc
16A-	16b-
16G	8.bb-
32E-	.
32F	.
32G	.
32F	.
16E-	16aa-
8.e-	16gg
.	32bb-
.	32aa-
.	32gg
.	32aa-
16d	16bb-
=14	=14
16c	16ee-
32e-	32gg
32d	32ff
32c	32ee-
32d	32ff
16e-	16gg
16A	16cc
32c	32ee-
32B-	32dd
32A	32cc
32B-	32dd
16c	16ee-
16F	16a
32A	32cc
32B-	32dd
32c	32ee-
32B-	32dd
16A	16cc
16d	16ff
32F	32a-
32E-	32g
32D	32f
32E-	32g
16F	16a-
=15	=15
16E-	16g
32G	32b-
32An	32cc
32B-	32dd
32A	32cc
16G	16b-
16c	16ee-
32E-	32g
32D	32f
32C	32e-
32D	32f
16E-	16g
16D	16f
32F	32a
32G	32b-
32A	32cc
32G	32b-
16F	16a
16B-	16dd
32D	32f
32C	32e-
32BB-	32d
32C	32e-
16D	16f
=16	=16
16C	16e-
32E-	32g
32F	32a
32G	32b-
32F	32a
16E-	16g
16A	16cc
32C	32e-
32BB-	32d
32AA	32c
32BB-	32d
16C	16e-
16BB-	4d
32B-	.
32c	.
32d	.
32c	.
16B-	.
16f	16r
16d	32b-
.	32cc
16b-	32dd
.	32cc
16f	16b-
=17	=17
16d	16ff
32f	16dd
32e-	.
32d	16bb-
32e-	.
16f	16ff
16B-	16dd
16d	32ff
.	32ee-
16F	32dd
.	32ee-
16A-	16ff
16G	16b-
32E-	16ee-
32F	.
32G	16b-
32F	.
16E-	16ee-
16B-	16g
16G	32e-
.	32f
16e-	32g
.	32f
16B-	16e-
=18	=18
16G	16b-
32B-	16g
32A-	.
32G	16ee-
32A-	.
16B-	16b-
16E-	16g
16G	32b-
.	32a-
16BB-	32g
.	32a-
16D	16b-
16C	8e-
32FF	.
32GG	.
32AAn	[8ee-
32GG	.
16FF	.
16C	16ee-]
16AA	32ee-
.	32dd
16E-	32cc
.	32dd
16C	16ee-
=19	=19
16AA	8f
32C	.
32BB-	.
32AA	[8ee-
32BB-	.
16C	.
16FF	16ee-]
16AA	32cc
.	32dd
16CC	32ee-
.	32dd
16EE-	16cc
16DD	16ff
32BB-	32dd
32C	32cc
32D	32b-
32C	32cc
16BB-	16dd
8F	16f
.	16b-
8FF	16cc
.	16a
=20	=20
1BB-;	1b-;
==|!	==|!
*-	*-
!!!CDT: 1685/3//-1750/7/28
!!!OCY: Deutschland
!!!AGN: polyphony
!!!AST: baroque
!!!AMT: simple quadruple
!!!SCA: Bach-Werke-Verzeichnis
!!!YOR: Bach Gesellschaft
!!!AIN: cemb; clavi
!!!EEV: 1.0
!!!RDT: 1986 November
!!!YER: 1995 May 22
!!!YEN: Canada
!!!EFL: 14/15
!!!EED: David Huron
